public/svgs/steps/step2-disabled.svg

<svg width="25" height="24" viewBox="0 0 25 24" fill="none" xmlns="http://www.w3.org/2000/svg">
<path d="M19.0017 14.8295L24.168 12C24.168 12 19.0617 9.20211 19.0017 9.17053C19.0206 9.10421 20.6532 3.51474 20.6532 3.51474L14.9974 5.16632C14.9659 5.10632 12.168 0 12.168 0L9.3385 5.16632C9.27218 5.14737 3.68271 3.51474 3.68271 3.51474L5.33428 9.17053C5.27428 9.20211 0.167969 12 0.167969 12L5.33428 14.8295L3.68271 20.4853C3.68271 20.4853 9.27218 18.8526 9.3385 18.8337L12.168 24C12.168 24 14.9659 18.8937 14.9974 18.8337L20.6532 20.4853C20.6532 20.4853 19.0206 14.8958 19.0017 14.8295Z" fill="#F1F3F5"/>
<path d="M14.8944 16V14.6551H11.5187V14.6012L12.721 13.4412C14.3472 11.9692 14.7826 11.2293 14.7865 10.3314C14.7826 8.96339 13.6612 8 11.9657 8C10.3086 8 9.16412 8.98651 9.16798 10.5318H10.7248C10.721 9.77264 11.2104 9.30636 11.9541 9.30636C12.6709 9.30636 13.2027 9.73796 13.2065 10.4355C13.2027 11.0674 12.8057 11.5029 12.0736 12.2081L9.23734 14.817L9.2412 16H14.8944Z" fill="#CCD2D8"/>
</svg>

<svg width="25" height="24" fill="none" xmlns="http://www.w3.org/2000/svg"><path d="M19.002 14.83 24.168 12l-5.166-2.83 1.651-5.655-5.656 1.651C14.966 5.106 12.168 0 12.168 0l-2.83 5.166-5.655-1.651L5.334 9.17C5.274 9.202.168 12 .168 12l5.166 2.83-1.651 5.655 5.655-1.651L12.168 24l2.83-5.166 5.655 1.651-1.651-5.655Z" fill="#F1F3F5"/><path d="M14.894 16v-1.345H11.52v-.054l1.202-1.16c1.626-1.472 2.062-2.212 2.066-3.11C14.783 8.963 13.66 8 11.966 8c-1.657 0-2.802.987-2.798 2.532h1.557c-.004-.76.485-1.226 1.23-1.226.716 0 1.248.432 1.252 1.13-.004.631-.401 1.067-1.133 1.772l-2.837 2.609L9.241 16h5.653Z" fill="#CCD2D8"/></svg>
